brandFactory_export/1.Light/Copa_Premio_1Light.svg

<?xml version="1.0" encoding="UTF-8"?>
<svg width="24px" height="24px" viewBox="0 0 24 24" version="1.1" xmlns="http://www.w3.org/2000/svg" xmlns:xlink="http://www.w3.org/1999/xlink">
    <title>1.Light/Copa_Premio_1Light</title>
    <g id="Symbols" stroke="none" stroke-width="1" fill="none" fill-rule="evenodd">
        <g id="1.Light/Copa_Premio_1Light" fill="#5CB615" fill-rule="nonzero">
            <path d="M18.8840336,9.72773109 C18.7529412,9.73109244 18.6084034,9.72773109 18.497479,9.72436975 C18.3226891,9.71764706 18.1512605,9.70084034 17.9798319,9.67058824 C18.7226891,7.87563025 18.9714286,5.53613445 18.9983193,2.8 L18.9983193,1.9394958 C20.1478992,1.9697479 22.6218487,2.42352941 22.6218487,5.81848739 C22.6218487,9.29411765 20.0067227,9.71092437 18.8840336,9.72773109 M11.8521008,12.507563 C11.8386555,12.5042017 11.8252101,12.497479 11.8084034,12.497479 C11.7882353,12.497479 11.7680672,12.507563 11.7478992,12.5109244 C11.697479,12.5109244 11.6537815,12.5142857 11.6067227,12.5142857 C6.9210084,12.5142857 5.25042017,9.9092437 5.22016807,2.56806723 L5.22016807,0.991596639 L18,0.991596639 C18,1.63697479 18,2.68907563 17.9966387,2.79663866 C17.9294118,9.84201681 16.312605,12.4168067 11.8521008,12.507563 M15.805042,22.6319328 L7.81848739,22.6319328 C7.97647059,20.2857143 9.28403361,19.1428571 11.8117647,19.1428571 C14.3361345,19.1428571 15.6470588,20.2857143 15.805042,22.6319328 M4.7394958,9.72773109 C3.61344538,9.71092437 1.00168067,9.29411765 1.00168067,5.81848739 C1.00168067,2.78655462 2.97142857,2.09747899 4.21512605,1.96638655 L4.21512605,2.57142857 C4.22857143,5.46890756 4.46722689,7.88571429 5.21680672,9.71092437 C4.94789916,9.72773109 4.74285714,9.72436975 4.7394958,9.72773109 M18.9983193,0.951260504 L18.9983193,0.494117647 C18.9983193,0.218487395 18.7731092,-0.00336134454 18.5008403,-3.76985437e-05 L4.71596639,-3.76985437e-05 C4.44033613,-0.00336134454 4.21512605,0.218487395 4.21512605,0.494117647 L4.21512605,0.98487395 C2.09747899,1.17310924 0,2.50756303 0,5.81848739 C0,9.37815126 2.44033613,10.6857143 4.72605042,10.7193277 L4.77647059,10.7193277 C4.91092437,10.7193277 5.28403361,10.712605 5.69411765,10.6655462 C6.74285714,12.4302521 8.4907563,13.4285714 11.3109244,13.4957983 L11.3109244,18.1848739 C8.40672269,18.3697479 6.80336134,20.0941176 6.80336134,23.1260504 C6.80336134,23.4016807 7.02521008,23.6235671 7.30420168,23.6235671 L16.3226891,23.6235671 C16.5983193,23.6268908 16.8201681,23.405042 16.8235294,23.1294118 L16.8235294,23.1260504 C16.8235294,20.0907563 15.2168067,18.3663866 12.3159664,18.1848739 L12.3159664,13.4756303 C14.9109244,13.3176471 16.5512605,12.2890756 17.5462185,10.5747899 C17.5764706,10.5882353 17.6067227,10.6084034 17.6403361,10.6184874 C17.9462185,10.6890756 18.3226891,10.712605 18.4806723,10.7159664 C18.5680672,10.7193277 18.6689076,10.7193277 18.7731092,10.7193277 L18.9042017,10.7193277 C21.1865546,10.6857143 23.6302521,9.37815126 23.6302521,5.81848739 C23.6235294,2.29243697 21.2470588,0.994957983 18.9983193,0.951260504" id="Copa_Premio_1Light"></path>
        </g>
    </g>
</svg>

<svg width="24" height="24" viewBox="0 0 24 24" xmlns="http://www.w3.org/2000/svg"><path d="M18.884 9.728c-.131.003-.276 0-.387-.004a3.806 3.806 0 01-.517-.053c.743-1.795.991-4.135 1.018-6.871v-.86c1.15.03 3.624.484 3.624 3.878 0 3.476-2.615 3.893-3.738 3.91m-7.032 2.78c-.013-.004-.027-.01-.044-.01-.02 0-.04.01-.06.013-.05 0-.094.003-.141.003-4.686 0-6.357-2.605-6.387-9.946V.992H18c0 .645 0 1.697-.003 1.805-.068 7.045-1.684 9.62-6.145 9.71m3.953 10.125H7.818c.158-2.346 1.466-3.49 3.994-3.49 2.524 0 3.835 1.144 3.993 3.49M4.739 9.728c-1.126-.017-3.737-.434-3.737-3.91 0-3.031 1.97-3.72 3.213-3.852v.605c.014 2.898.252 5.315 1.002 7.14-.27.017-.474.013-.478.017M19 .95V.494A.494.494 0 0018.5 0H4.716a.494.494 0 00-.5.494v.49C2.096 1.175 0 2.509 0 5.819c0 3.56 2.44 4.868 4.726 4.901h.05c.135 0 .508-.006.918-.053 1.049 1.764 2.797 2.763 5.617 2.83v4.689c-2.904.185-4.508 1.91-4.508 4.941 0 .276.222.498.501.498h9.019a.496.496 0 00.5-.495v-.003c0-3.035-1.606-4.76-4.507-4.941v-4.71c2.595-.157 4.235-1.186 5.23-2.9.03.013.06.033.094.043.306.071.683.095.84.098.088.003.189.003.293.003h.131c2.283-.033 4.726-1.34 4.726-4.9C23.624 2.291 21.247.994 18.998.95" fill="#5CB615" fill-rule="nonzero"/></svg>
